X: 2050
T: Zâvil Seyir
C: Şefik Gürmeriç
O: Turkey
F: http://compmusic.upf.edu/node/140
N: zavil--seyir--sofyan--1--sefik_gurmeric
N: makam= zavil
N: form= seyir
N: usul= sofyan = 4/4
M: 4/4
L: 1/16
K: C ^9/8f   
Q: 1/4=60
%%MIDI tuningsystem comma53
g4 g4 gagf g4  | f3e f2g2 agfe d4  | \
w:   |   | 
z2c'4c'b b3a g4  | 
w:   | 
f2g2 abag g8  | z4 f2g2 a4 a4  | g2=f2 e2d2 d3c B4  | \
w:   |   |   | 
z2g4gf =f3e d4  | 
w:   | 
^c2d2 e=fed d8  | z4 ^c2d2 e4 e4  | =fed4c2 d3c B4  | \
w:   |   |   | 
z4 g2g2 g2^f2 e2d2  | 
w:   | 
d^c_7/8B4AG G8  | z4 F2G2 A4 A4  | A2_7/8B4A2 B3A G4  | \
w:   |   |   | 
z2c4cB B2A2 G4  | 
w:   | 
F2G2 ABAG G8  | |


